svg/fluentui-system-icons/ic_fluent_earth_24_filled.svg

<svg width="24" height="24" viewBox="0 0 24 24" fill="none" xmlns="http://www.w3.org/2000/svg">
<path d="M10.9456 2.04712L10.9505 2.05443C11.2955 2.01845 11.6456 2 12.0001 2C17.523 2 22.0001 6.47715 22.0001 12C22.0001 17.5228 17.523 22 12.0001 22C8.79084 22 5.93466 20.4882 4.10488 18.1379L4.10232 18.1374L4.10279 18.1353C2.78496 16.4414 2.00012 14.3123 2.00012 12C2.00012 6.83804 5.91129 2.58957 10.9318 2.05639L10.9456 2.04712ZM12.0001 3.5C11.9469 3.5 11.8938 3.50049 11.8408 3.50146C11.9634 3.74566 12.095 4.0343 12.2145 4.35179C12.5614 5.27352 12.8803 6.6329 12.3144 7.83787C11.7918 8.95068 10.8897 9.23859 10.2243 9.41051L10.1397 9.43235C9.48331 9.60154 9.23093 9.6666 9.04683 9.9461C8.87785 10.2026 8.90345 10.5284 9.10821 11.1957C9.12261 11.2426 9.13818 11.2922 9.15442 11.3439C9.23552 11.6023 9.33329 11.9138 9.38425 12.2067C9.44765 12.5711 9.46556 13.0344 9.2322 13.4822C9.00071 13.9264 8.69387 14.2292 8.33132 14.4267C7.99078 14.6123 7.63806 14.6826 7.37417 14.7294L7.2812 14.7458C6.76633 14.8364 6.52004 14.8798 6.28017 15.1368C6.09397 15.3362 5.97379 15.6885 5.90361 16.2149C5.87504 16.4291 5.85786 16.6415 5.8401 16.8611L5.83056 16.9782C5.81058 17.2205 5.78581 17.4994 5.73133 17.7388L5.73103 17.7402C7.285 19.4364 9.51835 20.5 12.0001 20.5C13.5771 20.5 15.0538 20.0705 16.3197 19.3222C16.2213 19.222 16.1146 19.1044 16.0093 18.9718C15.6698 18.5444 15.2245 17.8081 15.3789 16.939C15.4531 16.5211 15.6771 16.1712 15.8936 15.9029C16.1142 15.6295 16.3804 15.3769 16.6132 15.1626C16.6685 15.1117 16.7215 15.0633 16.7723 15.0169C16.9505 14.8542 17.102 14.7159 17.2316 14.5802C17.4043 14.3991 17.4419 14.3175 17.4439 14.3133C17.5118 14.0886 17.4286 13.9294 17.3378 13.8592C17.2922 13.824 17.2311 13.7984 17.148 13.7978C17.0642 13.7971 16.9283 13.8222 16.7469 13.9372C16.5372 14.07 16.2321 14.152 15.9111 14.0228C15.6438 13.9151 15.4956 13.709 15.4245 13.5914C15.2806 13.3535 15.1997 13.0452 15.1471 12.8191C15.1065 12.6447 15.0677 12.4467 15.0324 12.2661C15.0182 12.1938 15.0046 12.1242 14.9917 12.0601C14.9411 11.8103 14.8985 11.6318 14.8576 11.5209C14.8576 11.5209 14.8519 11.5073 14.8383 11.4825C14.8236 11.4555 14.8028 11.421 14.7743 11.3777C14.7163 11.2894 14.6405 11.1857 14.5466 11.0613C14.5125 11.0161 14.4758 10.968 14.4374 10.9176C14.2763 10.7064 14.0844 10.4548 13.9211 10.206C13.7253 9.90761 13.504 9.51768 13.434 9.10184C13.397 8.88146 13.3975 8.62694 13.489 8.36839C13.5826 8.10363 13.7536 7.88589 13.9756 7.7194C14.459 7.35683 15.1691 6.54683 15.7989 5.76036C16.0865 5.40123 16.3435 5.06476 16.5348 4.80938C15.2225 3.98001 13.6674 3.5 12.0001 3.5Z" fill="#212121"/>
</svg>

<svg xmlns="http://www.w3.org/2000/svg" width="24" height="24"><path d="m10.946 2.047.005.007C11.296 2.018 11.646 2 12 2c5.522 0 10 4.477 10 10s-4.478 10-10 10a9.983 9.983 0 0 1-7.896-3.862h-.003v-.003A9.957 9.957 0 0 1 2 12c0-5.162 3.911-9.41 8.932-9.944l.014-.009ZM12 3.5l-.16.001c.123.245.255.533.374.85.347.923.666 2.282.1 3.487-.522 1.113-1.424 1.4-2.09 1.573l-.084.021c-.657.17-.91.235-1.093.514-.17.257-.144.582.061 1.25l.046.148c.082.258.18.57.23.863.064.364.082.827-.152 1.275a2.187 2.187 0 0 1-.9.945c-.341.185-.694.256-.958.302l-.093.017c-.515.09-.761.134-1 .39-.187.2-.307.553-.377 1.079-.029.214-.046.427-.064.646l-.01.117c-.02.242-.044.521-.099.76v.002a8.478 8.478 0 0 0 6.27 2.76c1.576 0 3.053-.43 4.319-1.178a4.47 4.47 0 0 1-.31-.35c-.34-.428-.786-1.164-.631-2.033.074-.418.298-.768.515-1.036a7.12 7.12 0 0 1 .72-.74l.158-.146c.179-.163.33-.301.46-.437.172-.18.21-.262.212-.267.068-.224-.015-.384-.106-.454a.304.304 0 0 0-.19-.061c-.084 0-.22.024-.401.14a.912.912 0 0 1-.836.085 1.025 1.025 0 0 1-.486-.432c-.144-.237-.225-.546-.278-.772-.04-.174-.08-.372-.115-.553l-.04-.206a4.127 4.127 0 0 0-.134-.54l-.02-.037a1.507 1.507 0 0 0-.064-.105 6.233 6.233 0 0 0-.227-.317l-.11-.143a12.686 12.686 0 0 1-.516-.712c-.196-.298-.417-.688-.487-1.104a1.46 1.46 0 0 1 .055-.734c.094-.264.265-.482.487-.649.483-.362 1.193-1.172 1.823-1.959.288-.359.544-.695.736-.95A8.46 8.46 0 0 0 12 3.5Z"/></svg>
